icon-themes/sifr_svg/cmd/lc_linearrowcircle.svg

<svg viewBox="0 0 24 24" xmlns="http://www.w3.org/2000/svg"><path d="m7 8c-.30945 0-.55232.0903-.75.28125l-4.25 3.71875c1.41667 1.073 2.83333 2.64574 4.25 3.71875.19768.19095.44055.28125.75.28125h.5859375.4140625v-1c0-.25689-.12983-.52845-.3125-.71875l-1.5097656-1.28125h9.9960936a2.9999971 3.0000048 0 0 0 2.826172 2 2.9999971 3.0000048 0 0 0 3-3 2.9999971 3.0000048 0 0 0 -3-3 2.9999971 3.0000048 0 0 0 -2.824219 2h-9.9980466l1.5097656-1.28125c.18267-.19029.3125-.46186.3125-.71875v-1h-.4140625z" fill="#555753"/></svg>

<svg xmlns="http://www.w3.org/2000/svg" viewBox="0 0 24 24">
 <path
     style="fill:#555753"
     d="M 7 8 C 6.69055 8 6.44768 8.0903 6.25 8.28125 L 2 12 C 3.41667 13.073 4.83333 14.64574 6.25 15.71875 C 6.44768 15.9097 6.69055 16 7 16 L 7.5859375 16 L 8 16 L 8 15 C 8 14.74311 7.87017 14.47155 7.6875 14.28125 L 6.1777344 13 L 16.173828 13 A 2.9999971 3.0000048 0 0 0 19 15 A 2.9999971 3.0000048 0 0 0 22 12 A 2.9999971 3.0000048 0 0 0 19 9 A 2.9999971 3.0000048 0 0 0 16.175781 11 L 6.1777344 11 L 7.6875 9.71875 C 7.87017 9.52846 8 9.25689 8 9 L 8 8 L 7.5859375 8 L 7 8 z "
     />
 </svg>
